X:6483
T:the Alston Hornpipe
O:england
M:4/4
A:North-West
R:Hornpipe
K:F
cB|\
Acf4 af| egb4ga| bgaf gefa| gec4 cB|\
Acf4 af| egB4dB| AFBG AFGE| F2{e}f2 F2::\
cB|\
Acfc acfA| dBFD B,2dc| =Bdgd bdgd| ecGE C2cB|\
Acf4 af| egB4 dB| AFBG AFGE| F2A2 F2:|


